!!!COM: Gabriel Faure/
!!!CNT: Francais
!!!TXO: Francais
!!!OTL: Toujours (poe2me d'un jour)
!!!OPS: Op. 21
!!!ONM: No. 2
!!!LYR: Charles Grandmougin
!!!ENC: Jacob Pegg
!!!YOR: Album of Twenty Songs (Vingt Me/lodies,) Volume II
!!!YOR: Edward B. Marks Music Corporation, RCA Building, Radio
!!!YOR: City, New York 20, N.Y.
!!!ODT: 1878/
!!NB: Vocal melody and text only encoded.
!!NB: First instance of melodic material only encoded.
**kern	**silbe
*clef G2	*
*k[b-e-a-d-]	*
*M4/4	*
*MM152	*
!!created: 2/6/04 16:33
!!proofed and posted: 2/6/04 18:20
!!edit time: 30 min.
=1	=1
1r	.
=2	=2
2r	.
2r	.
=3	=3
2r	.
{4cc	{Vous
4cc	me
=4	=4
4dd-	de-
4f	-man-
4g	-dez
8a-	de
8b-	me
=5	=5
2cc	tai-
8cc}	-re;}
8r	.
{4cc	{De
=6	=6
4ee-	fuir
8dd-	loin
8cc	de
4b-	vous
8a-	pour
8g-	ja-
=7	=7
2.a-}	-mais}
{4a-	{Et
=8	=8
4gn	de
8a-	m'en
8b-	al-
4cc	-ler,
8dd-	so-
8ee-	-li-
=9	=9
4.ff	-tai-
8ff	-re.
4ee-	Sans
4cc	me
=10	=10
4g	rap-
4a-	-pe-
4b-	-ler
8cc	qui
8dd-	j'ai-
=11	=11
[2cc	-mais!
8cc]}	|}
8r	.
{8cc	{De-
8cc	-man-
=12	=12
4cc	-dez
4dd-	plu-
4ee-	-to^t
8dd-	aux
8cc	e/-
=13	=13
4.b-	-toi-
8b-	-les
4cc-	De
4cc-	tom-
=14	=14
4.b-	-ber
8b-	dans
4cc-	l'im-
8gn	-men-
8cc-	-si-
=15	=15
2.ee-}	-te/,}
{8ee-	{A
8ee-	la
=16	=16
4.ee-	nuit
8ff-	de
4gg-	per-
8ff-	-dre
8ee-	ses
=17	=17
4.dd-	voi-
8dd-	-les,
4ddn	Au
8ddn	jour
8ddn	de
=18	=18
4.dd-	per-
8dd-	-dre
4ddn	sa
(8b-	clar-
8ddn)	|
=19	=19
[2ff#	-te/!
8ff#]}	|}
8r	.
{8ddn	{De-
8een	-man-
=20	=20
4ff#	-dez
8een	a\
8ddn	la
4.cc#	mer
8an	im-
=21	=21
4.bn	-men-
8bn	-se
4ccn	De
8ccn	des-
8ccn	-se/-
=22	=22
4.bn	-cher
8bn	ses
4cc	vas-
(8a-	-tes
8cc)	|
=23	=23
1een}	flots}
=24	=24
{2ff	{Et
4f	quand
4g	les
=25	=25
4a-	vents
4f	sont
4.cc	en
8a-	de/-
=26	=26
1ff	-men-
=27	=27
2f}	-ce,}
2r	.
=28	=28
{4ff	{D'a-
4ff	-pai-
4f	-ser
4g	ses
=29	=29
2a-	som-
4f	-bres
4cc	san-
=30	=30
[1bn	-glets!
=31	=31
2bn]}	|}
{4bn	{Mais
4cc	n'es-
=32	=32
4dd-	-pe/-
4f	-rez
4g	pas
8a-	que
8b-	mon
=33	=33
2cc	a^-
4cc	-me
4cc	s'ar-
=34	=34
4ee-	-rache
8dd-	a\
8cc	ses
4b-	a^-
8a-	-pres
8g-	dou-
=35	=35
1a-}	-leurs,}
=36	=36
{2gn	{Et
4a-	se
4cc	de/-
=37	=37
4b-	-pouil-
4an	-le
4.dd-	de
8cc	sa
=38	=38
2cc	flam-
[2bn	-me
=39	=39
4bn]}	|}
4r	.
2r	.
=40	=40
{4cc	{Com-
4een	-me
4gg	le
4ff	prin-
=41	=41
[1aa-	-temps
=42	=42
2aa-]	|
4.gg	de
8ff	ses
=43	=43
[1ff	fleurs!
=44	=44
1ff_	|
=45	=45
2ff]}	|}
2r	.
*-	*-
